X:76
T:Jigg Poltage. LIT.076
M:9/8
Q:3/8=115
L:1/8
B:Wm. Litten MS, 1802
Z:Village Music Project 2017 Anne Wride
K:D
efe e2d c3 | efe edc Bcd | efe e2d c3 | d2d dB^G  Bcd :|
|: c2A ABA A3 | efe edc Bcd | c2A ABA A3 | d2d dB^G Bcd :|

